; generated by PrusaSlicer 2.5.0+MacOS-x64 on 2022-09-25 at 02:28:01 UTC


;
;
; 

; external perimeters extrusion width = 0.60mm
; perimeters extrusion width = 0.50mm
; infill extrusion width = 0.50mm
; solid infill extrusion width = 0.50mm
; top infill extrusion width = 0.45mm
; support material extrusion width = 0.38mm
; first layer extrusion width = 0.42mm

M73 P0 R15
M73 Q0 S15
M201 X1000 Y1000 Z200 E5000 ; sets maximum accelerations, mm/sec^2
M203 X200 Y200 Z12 E120 ; sets maximum feedrates, mm / sec
M204 P1250 R1250 T1250 ; sets acceleration (P, T) and retract acceleration (R), mm/sec^2
M205 X8.00 Y8.00 Z0.40 E4.50 ; sets the jerk limits, mm/sec
M205 S0 T0 ; sets the minimum extruding and travel feed rate, mm/sec
M107
;TYPE:Custom
M862.3 P "MK3S" ; printer model check
M862.1 P0.4 ; nozzle diameter check
M115 U3.11.0 ; tell printer latest fw version
G90 ; use absolute coordinates
M83 ; extruder relative mode
M104 S215 ; set extruder temp
M140 S60 ; set bed temp
M190 S60 ; wait for bed temp
M109 S215 ; wait for extruder temp
G28 W ; home all without mesh bed level
G80 ; mesh bed leveling

G1 Z0.2 F720
G1 Y-3 F1000 ; go outside print area
G92 E0
G1 X60 E9 F1000 ; intro line
G1 X100 E12.5 F1000 ; intro line

G92 E0
M221 S95

; Don't change E values below. Excessive value can damage the printer.

M907 E538 ; set extruder motor current
G21 ; set units to millimeters
G90 ; use absolute coordinates
M83 ; use relative distances for extrusion
M900 K0.05 ; Filament gcode LA 1.5
M900 K30 ; Filament gcode LA 1.0
M107
;LAYER_CHANGE
;Z:0.2
;HEIGHT:0.2
;BEFORE_LAYER_CHANGE
G92 E0.0
;0.2


M73 P0 R14
G1 E-.8 F2100
M73 Q0 S14
G1 Z.4 F720
;AFTER_LAYER_CHANGE
;0.2
G1 X119.862 Y103.391 F10800
G1 Z.2 F720
G1 E.8 F2100
M204 S800
;TYPE:Skirt/Brim
;WIDTH:0.42
G1 F1200
G1 X122.177 Y101.075 E.10268
G1 X122.893 Y100.559 E.02766
G1 X127.524 Y98.244 E.16235
G1 X128.756 Y97.953 E.03968
G1 X141.598 Y97.953 E.40266
G1 X142.83 Y98.244 E.03968
G1 X147.461 Y100.559 E.16235
G1 X148.693 Y101.791 E.05462
M73 Q1 S14
G1 X151.009 Y106.422 E.16235
G1 X151.3 Y107.654 E.03968
M73 P1 R14
G1 X151.3 Y122.812 E.47527
G1 X151.009 Y124.044 E.03968
G1 X148.693 Y128.675 E.16235
G1 X147.461 Y129.907 E.05462
G1 X142.83 Y132.222 E.16235
G1 X141.598 Y132.513 E.03968
G1 X124.125 Y132.513 E.54787
G1 X122.177 Y131.706 E.06609
G1 X117.546 Y127.075 E.20536
G1 X116.74 Y125.127 E.06609
G1 X116.74 Y109.97 E.47527
G1 X117.03 Y108.738 E.03968
G1 X119.346 Y104.107 E.16235
G1 X119.827 Y103.44 E.02578
M204 S1000
G1 X120.128 Y103.657 F10800
M204 S800
G1 F1200
G1 X122.444 Y101.342 E.10268
G1 X123.062 Y100.897 E.02388
G1 X127.693 Y98.581 E.16235
G1 X128.756 Y98.33 E.03425
G1 X141.598 Y98.33 E.40266
G1 X142.662 Y98.581 E.03425
G1 X147.293 Y100.897 E.16235
G1 X148.356 Y101.96 E.04714
G1 X150.671 Y106.591 E.16235
G1 X150.922 Y107.654 E.03425
G1 X150.922 Y122.812 E.47527
G1 X150.671 Y123.875 E.03425
G1 X148.356 Y128.506 E.16235
G1 X147.293 Y129.569 E.04714
G1 X142.662 Y131.885 E.16235
G1 X141.598 Y132.136 E.03425
G1 X124.125 Y132.136 E.54787
G1 X122.444 Y131.44 E.05704
G1 X117.813 Y126.808 E.20536
G1 X117.117 Y125.127 E.05704
M73 Q2 S14
G1 X117.117 Y109.97 E.47527
G1 X117.368 Y108.907 E.03425
M73 P2 R14
G1 X119.683 Y104.275 E.16235
G1 X120.093 Y103.706 E.022
M204 S1000
; printing object Abstract Circle v1.stl id:0 copy 0
;WIPE_START
G1 F8640
G1 X122.414 Y101.372 E-.76
;WIPE_END
G1 E-.04 F2100
G1 Z.6 F720
G1 X130.768 Y108.286 F10800
G1 Z.2 F720
G1 E.8 F2100
M204 S800
;TYPE:Support material interface
;WIDTH:0.38
G1 F1200
G1 X130.41 Y108.286 E.01003
G1 X130.41 Y114.534 E.17513
G1 X129.895 Y114.534 E.01445
G1 X129.895 Y108.286 E.17512
G1 X129.388 Y108.286 E.01419
G1 X129.379 Y114.534 E.17512
G1 X128.863 Y114.534 E.01445
G1 X128.863 Y112.917 E.0453
G1 X128.348 Y112.917 E.01445
G1 X128.348 Y114.533 E.04529
G1 X127.832 Y114.533 E.01445
G1 X127.832 Y112.917 E.04529
G1 X127.316 Y112.917 E.01445
G1 X127.316 Y114.533 E.04528
G1 X127.073 Y114.533 E.00683
G1 X127.073 Y114.062 E.0132
M204 S1000
;WIPE_START
G1 F8640
G1 X127.073 Y114.533 E-.10872
G1 X127.316 Y114.533 E-.0563
G1 X127.316 Y112.917 E-.37302
G1 X127.832 Y112.917 E-.11906
G1 X127.832 Y113.363 E-.1029
;WIPE_END
G1 E-.04 F2100
G1 Z.6 F720
G1 X129.881 Y114.902 F10800
G1 Z.2 F720
G1 E.8 F2100
M204 S800
;TYPE:Support material
;WIDTH:0.42
G1 F1200
G1 X130.434 Y114.902 E.01733
G1 X130.52 Y114.985 E.00377
G1 X130.561 Y115.549 E.01773
G1 X129.877 Y115.549 E.02144
G1 X129.834 Y114.911 E.02006
M204 S1000
;WIPE_START
G1 F8640
G1 X129.877 Y115.549 E-.14773
G1 X130.561 Y115.549 E-.15791
G1 X130.52 Y114.985 E-.13058
G1 X130.434 Y114.902 E-.02774
G1 X129.881 Y114.902 E-.12759
;WIPE_END
G1 E-.20846 F2100
G1 Z.6 F720
G1 X131.081 Y116.072 F10800
G1 Z.2 F720
G1 E.8 F2100
M204 S800
;TYPE:Support material interface
;WIDTH:0.38
G1 F1200
G1 X130.999 Y115.831 E.00713
G1 X130.926 Y115.499 E.00951
G1 X130.926 Y108.286 E.20218
G1 X131.441 Y108.286 E.01445
G1 X131.441 Y116.727 E.23658
G1 X131.657 Y116.985 E.00942
G1 X131.957 Y117.26 E.01142
G1 X131.957 Y108.286 E.25152
G1 X132.473 Y108.286 E.01445
G1 X132.473 Y117.584 E.26062
G1 X132.697 Y117.682 E.00684
G1 X132.988 Y117.775 E.00858
G1 X132.988 Y108.286 E.26595
G1 X133.504 Y108.286 E.01445
G1 X133.504 Y117.861 E.26836
G1 X133.7 Y117.869 E.0055
G1 X134.02 Y117.851 E.00897
G1 X134.02 Y108.286 E.26809
G1 X134.535 Y108.286 E.01445
G1 X134.535 Y117.744 E.26508
G1 X134.778 Y117.657 E.00723
G1 X135.051 Y117.526 E.00847
G1 X135.051 Y108.286 E.25899
G1 X135.566 Y108.286 E.01445
G1 X135.566 Y117.167 E.24891
G1 X135.829 Y116.904 E.01041
M73 P3 R14
M73 Q3 S14
G1 X136.082 Y116.564 E.01188
G1 X136.082 Y108.286 E.23201
G1 X136.44 Y108.286 E.01003
M204 S1000
;WIPE_START
G1 F8640
G1 X136.082 Y108.286 E-.08262
G1 X136.082 Y111.22 E-.67738
;WIPE_END
G1 E-.04 F2100
G1 Z.6 F720
G1 X138.651 Y108.286 F10800
G1 Z.2 F720
G1 E.8 F2100
M204 S800
G1 F1200
G1 X138.66 Y114.539 E.17525
G1 X138.144 Y114.539 E.01445
G1 X138.144 Y108.286 E.17525
G1 X137.629 Y108.286 E.01445
G1 X137.629 Y114.538 E.17524
G1 X137.113 Y114.538 E.01445
G1 X137.113 Y108.286 E.17523
G1 X136.598 Y108.286 E.01445
G1 X136.598 Y114.762 E.1815
G1 X136.532 Y114.825 E.00256
G1 X136.512 Y115.292 E.01312
G1 X136.482 Y115.528 E.00665
G1 X136.432 Y115.76 E.00665
G1 X136.33 Y116.075 E.0093
M204 S1000
;WIPE_START
G1 F8640
G1 X136.432 Y115.76 E-.07665
G1 X136.482 Y115.528 E-.0548
G1 X136.512 Y115.292 E-.05479
G1 X136.532 Y114.825 E-.10811
G1 X136.598 Y114.762 E-.02107
G1 X136.598 Y112.836 E-.44458
;WIPE_END
G1 E-.04 F2100
G1 Z.6 F720
G1 X138.818 Y110.602 F10800
G1 Z.2 F720
G1 E.8 F2100
M204 S800
G1 F1200
G1 X139.176 Y110.602 E.01003
G1 X139.176 Y114.539 E.11036
G1 X139.691 Y114.539 E.01445
G1 X139.691 Y110.602 E.11037
G1 X140.207 Y110.602 E.01445
G1 X140.207 Y114.54 E.11037
G1 X140.723 Y114.54 E.01445
G1 X140.723 Y110.602 E.11038
G1 X140.966 Y110.602 E.00683
G1 X140.966 Y111.073 E.0132
M204 S1000
;WIPE_START
G1 F8640
G1 X140.966 Y110.602 E-.10875
G1 X140.723 Y110.602 E-.0563
G1 X140.723 Y113.178 E-.59494
;WIPE_END
G1 E-.04 F2100
G1 Z.6 F720
G1 X141.598 Y103.023 F10800
G1 Z.2 F720
G1 E.8 F2100
M204 S800
;TYPE:Support material
;WIDTH:0.42
G1 F1200
G1 X146.23 Y103.023 E.14521
G1 X146.23 Y107.654 E.14521
G1 X148.545 Y107.654 E.0726
G1 X148.545 Y122.812 E.47527
G1 X146.23 Y122.812 E.0726
G1 X146.23 Y127.443 E.14521
G1 X141.598 Y127.443 E.14521
G1 X141.598 Y129.759 E.0726
G1 X124.125 Y129.759 E.54787
G1 X124.125 Y127.443 E.0726
G1 X121.809 Y127.443 E.0726
G1 X121.809 Y125.127 E.0726
G1 X119.494 Y125.127 E.0726
G1 X119.494 Y109.97 E.47527
G1 X121.809 Y109.97 E.0726
M73 P4 R14
M73 Q4 S14
G1 X121.809 Y105.338 E.14521
G1 X124.125 Y105.338 E.0726
G1 X124.125 Y103.023 E.0726
G1 X128.756 Y103.023 E.14521
G1 X128.756 Y100.707 E.0726
G1 X141.598 Y100.707 E.40266
G1 X141.598 Y102.966 E.07083
M204 S1000
;WIPE_START
G1 F8640
G1 X141.598 Y100.707 E-.52162
G1 X140.566 Y100.707 E-.23838
;WIPE_END
G1 E-.04 F2100
G1 Z.6 F720
G1 X129.02 Y112.549 F10800
G1 Z.2 F720
G1 E.8 F2100
M204 S800
G1 F1200
G1 X126.705 Y112.549 E.0726
G1 X126.705 Y114.48 E.06054
G1 X126.487 Y114.48 E.00684
G1 X126.151 Y114.822 E.01501
G1 X126.162 Y115.387 E.01772
G1 X126.202 Y115.902 E.01622
G1 X126.344 Y116.737 E.02654
G1 X126.45 Y117.147 E.01328
G1 X126.647 Y117.738 E.01953
G1 X126.996 Y118.518 E.02679
G1 X127.427 Y119.247 E.02654
G1 X127.937 Y119.922 E.02654
G1 X128.241 Y120.26 E.01427
G1 X128.669 Y120.674 E.01866
G1 X129.331 Y121.201 E.02653
G1 X130.055 Y121.654 E.02677
G1 X130.623 Y121.936 E.01989
G1 X131.219 Y122.17 E.02007
G1 X132.03 Y122.401 E.02644
G1 X132.847 Y122.538 E.02599
G1 X133.284 Y122.573 E.01375
G1 X134.129 Y122.57 E.02648
G1 X134.951 Y122.475 E.02597
G1 X135.686 Y122.311 E.02359
G1 X136.288 Y122.116 E.01984
G1 X136.582 Y122 E.00992
G1 X137.144 Y121.737 E.01946
G1 X137.703 Y121.416 E.0202
G1 X137.966 Y121.241 E.00991
G1 X138.461 Y120.867 E.01944
G1 X138.94 Y120.437 E.02019
G1 X139.372 Y119.976 E.01981
G1 X139.574 Y119.733 E.0099
G1 X139.938 Y119.232 E.01943
G1 X140.271 Y118.682 E.02017
G1 X140.456 Y118.32 E.01272
G1 X140.669 Y117.836 E.01659
G1 X140.881 Y117.229 E.02016
G1 X141.035 Y116.629 E.01941
G1 X141.14 Y116.007 E.01978
G1 X141.193 Y115.383 E.01964
G1 X141.204 Y114.908 E.0149
G1 X141.334 Y114.908 E.00409
G1 X141.334 Y110.234 E.14656
G1 X139.019 Y110.234 E.0726
G1 X139.019 Y107.918 E.0726
G1 X129.02 Y107.918 E.31349
G1 X129.02 Y112.493 E.14344
M204 S1000
;WIPE_START
G1 F8640
G1 X129.02 Y109.201 E-.76
;WIPE_END
G1 E-.04 F2100
G1 Z.6 F720
G1 X147.846 Y122.642 F10800
G1 Z.2 F720
G1 E.8 F2100
M204 S800
G1 F1200
G1 X147.846 Y107.993 E.4593
G1 X147.427 Y107.993 E.01314
G1 X147.427 Y122.473 E.45398
G1 X147.008 Y122.473 E.01314
G1 X147.008 Y107.993 E.45398
G1 X146.589 Y107.993 E.01314
G1 X146.589 Y122.473 E.45398
G1 X146.17 Y122.473 E.01314
G1 X146.17 Y107.993 E.45398
G1 X145.89 Y107.993 E.00876
M73 P5 R14
M73 Q5 S14
G1 X145.89 Y103.362 E.14521
G1 X145.751 Y103.362 E.00437
G1 X145.751 Y127.104 E.7444
G1 X145.332 Y127.104 E.01314
G1 X145.332 Y103.362 E.7444
G1 X144.913 Y103.362 E.01314
G1 X144.913 Y127.104 E.7444
G1 X144.494 Y127.104 E.01314
G1 X144.494 Y103.362 E.7444
G1 X144.075 Y103.362 E.01314
G1 X144.075 Y127.104 E.7444
G1 X143.656 Y127.104 E.01314
G1 X143.656 Y103.362 E.7444
G1 X143.237 Y103.362 E.01314
G1 X143.237 Y127.104 E.7444
G1 X142.818 Y127.104 E.01314
M73 P6 R14
M73 Q6 S14
G1 X142.818 Y103.362 E.7444
G1 X142.399 Y103.362 E.01314
G1 X142.399 Y127.104 E.7444
G1 X141.98 Y127.104 E.01314
G1 X141.98 Y103.362 E.7444
G1 X141.561 Y103.362 E.01314
G1 X141.561 Y127.104 E.7444
G1 X141.259 Y127.104 E.00947
G1 X141.259 Y129.419 E.0726
G1 X141.142 Y129.419 E.00367
G1 X141.142 Y117.524 E.37298
G1 X140.984 Y117.964 E.01468
G1 X140.723 Y118.549 E.02008
G1 X140.723 Y129.419 E.34082
G1 X140.304 Y129.419 E.01314
M73 P6 R13
G1 X140.304 Y119.289 E.31764
G1 X139.885 Y119.884 E.02282
G1 X139.885 Y129.419 E.29899
G1 X139.466 Y129.419 E.01314
G1 X139.466 Y120.379 E.28345
G1 X139.047 Y120.801 E.01865
G1 X139.047 Y129.419 E.27021
G1 X138.628 Y129.419 E.01314
G1 X138.628 Y121.167 E.25874
G1 X138.209 Y121.484 E.01648
M73 P7 R13
M73 Q7 S14
G1 X138.209 Y129.419 E.2488
G1 X137.79 Y129.419 E.01314
G1 X137.79 Y121.76 E.24016
G1 X137.371 Y122 E.01514
G1 X137.371 Y129.419 E.23262
G1 X136.952 Y129.419 E.01314
G1 X136.952 Y122.208 E.22612
G1 X136.533 Y122.384 E.01426
G1 X136.533 Y129.419 E.22058
G1 X136.114 Y129.419 E.01314
M73 Q7 S13
G1 X136.114 Y122.536 E.21584
G1 X135.695 Y122.659 E.01369
G1 X135.695 Y129.419 E.21198
G1 X135.276 Y129.419 E.01314
G1 X135.276 Y122.756 E.20892
G1 X134.857 Y122.831 E.01335
G1 X134.857 Y129.419 E.20656
G1 X134.439 Y129.419 E.01314
G1 X134.439 Y122.884 E.20492
G1 X134.02 Y122.914 E.01317
G1 X134.02 Y129.419 E.20399
G1 X133.601 Y129.419 E.01314
G1 X133.601 Y122.921 E.20375
G1 X133.182 Y122.906 E.01315
G1 X133.182 Y129.419 E.20422
G1 X132.763 Y129.419 E.01314
G1 X132.763 Y122.869 E.20539
G1 X132.344 Y122.809 E.01327
G1 X132.344 Y129.419 E.20728
G1 X131.925 Y129.419 E.01314
G1 X131.925 Y122.725 E.2099
G1 X131.506 Y122.617 E.01356
G1 X131.506 Y129.419 E.21328
G1 X131.087 Y129.419 E.01314
G1 X131.087 Y122.484 E.21746
G1 X130.668 Y122.324 E.01406
G1 X130.668 Y129.419 E.22247
G1 X130.249 Y129.419 E.01314
G1 X130.249 Y122.136 E.22838
G1 X129.83 Y121.917 E.01482
G1 X129.83 Y129.419 E.23525
G1 X129.411 Y129.419 E.01314
G1 X129.411 Y121.664 E.24317
G1 X128.992 Y121.374 E.01598
G1 X128.992 Y129.419 E.25226
G1 X128.573 Y129.419 E.01314
M73 P8 R13
M73 Q8 S13
G1 X128.573 Y121.04 E.26273
G1 X128.154 Y120.655 E.01783
G1 X128.154 Y129.419 E.27479
G1 X127.735 Y129.419 E.01314
G1 X127.735 Y120.207 E.28883
G1 X127.316 Y119.68 E.02113
G1 X127.316 Y129.419 E.30538
G1 X126.897 Y129.419 E.01314
G1 X126.897 Y119.04 E.32544
G1 X126.69 Y118.664 E.01345
G1 X126.478 Y118.218 E.01549
G1 X126.478 Y129.419 E.3512
G1 X126.059 Y129.419 E.01314
G1 X126.059 Y116.991 E.38968
G1 X125.928 Y116.383 E.01951
G1 X125.863 Y115.919 E.01468
G1 X125.823 Y115.401 E.0163
G1 X125.809 Y114.686 E.02244
G1 X126.059 Y114.431 E.01118
G1 X126.059 Y103.362 E.34706
G1 X126.478 Y103.362 E.01314
G1 X126.478 Y112.21 E.27742
G1 X126.897 Y112.21 E.01314
G1 X126.897 Y103.362 E.27742
G1 X127.316 Y103.362 E.01314
G1 X127.316 Y112.21 E.27742
G1 X127.735 Y112.21 E.01314
G1 X127.735 Y103.362 E.27742
G1 X128.154 Y103.362 E.01314
G1 X128.154 Y112.21 E.27742
G1 X128.573 Y112.21 E.01314
G1 X128.573 Y103.362 E.27742
G1 X128.992 Y103.362 E.01314
G1 X128.992 Y107.579 E.13221
G1 X129.411 Y107.579 E.01314
G1 X129.411 Y101.046 E.20482
G1 X129.83 Y101.046 E.01314
G1 X129.83 Y107.579 E.20482
G1 X130.249 Y107.579 E.01314
G1 X130.249 Y101.046 E.20482
G1 X130.668 Y101.046 E.01314
G1 X130.668 Y107.579 E.20482
G1 X131.087 Y107.579 E.01314
M73 P9 R13
M73 Q9 S13
G1 X131.087 Y101.046 E.20482
G1 X131.506 Y101.046 E.01314
G1 X131.506 Y107.579 E.20482
G1 X131.925 Y107.579 E.01314
G1 X131.925 Y101.046 E.20482
G1 X132.344 Y101.046 E.01314
G1 X132.344 Y107.579 E.20482
G1 X132.763 Y107.579 E.01314
G1 X132.763 Y101.046 E.20482
G1 X133.182 Y101.046 E.01314
G1 X133.182 Y107.579 E.20482
G1 X133.601 Y107.579 E.01314
G1 X133.601 Y101.046 E.20482
G1 X134.02 Y101.046 E.01314
G1 X134.02 Y107.579 E.20482
G1 X134.439 Y107.579 E.01314
G1 X134.439 Y101.046 E.20482
G1 X134.857 Y101.046 E.01314
G1 X134.857 Y107.579 E.20482
G1 X135.276 Y107.579 E.01314
G1 X135.276 Y101.046 E.20482
G1 X135.695 Y101.046 E.01314
G1 X135.695 Y107.579 E.20482
G1 X136.114 Y107.579 E.01314
G1 X136.114 Y101.046 E.20482
G1 X136.533 Y101.046 E.01314
G1 X136.533 Y107.579 E.20482
G1 X136.952 Y107.579 E.01314
G1 X136.952 Y101.046 E.20482
G1 X137.371 Y101.046 E.01314
G1 X137.371 Y107.579 E.20482
G1 X137.79 Y107.579 E.01314
G1 X137.79 Y101.046 E.20482
G1 X138.209 Y101.046 E.01314
G1 X138.209 Y107.579 E.20482
G1 X138.628 Y107.579 E.01314
G1 X138.628 Y101.046 E.20482
G1 X139.047 Y101.046 E.01314
G1 X139.047 Y107.579 E.20482
G1 X139.358 Y107.579 E.00975
G1 X139.358 Y109.894 E.0726
G1 X139.466 Y109.894 E.00339
G1 X139.466 Y101.046 E.27742
G1 X139.885 Y101.046 E.01314
G1 X139.885 Y109.894 E.27742
G1 X140.304 Y109.894 E.01314
G1 X140.304 Y101.046 E.27742
G1 X140.723 Y101.046 E.01314
M73 P10 R13
G1 X140.723 Y109.894 E.27742
M73 Q10 S13
G1 X141.142 Y109.894 E.01314
G1 X141.142 Y100.877 E.28274
M204 S1000
;WIPE_START
G1 F8640
G1 X141.142 Y104.168 E-.76
;WIPE_END
G1 E-.04 F2100
G1 Z.6 F720
G1 X125.64 Y129.589 F10800
G1 Z.2 F720
G1 E.8 F2100
M204 S800
G1 F1200
G1 X125.64 Y103.362 E.82233
G1 X125.221 Y103.362 E.01314
G1 X125.221 Y129.419 E.81701
G1 X124.802 Y129.419 E.01314
G1 X124.802 Y103.362 E.81701
G1 X124.464 Y103.362 E.01059
G1 X124.464 Y105.678 E.0726
G1 X124.383 Y105.678 E.00255
G1 X124.383 Y127.104 E.6718
G1 X123.964 Y127.104 E.01314
G1 X123.964 Y105.678 E.6718
G1 X123.545 Y105.678 E.01314
G1 X123.545 Y127.104 E.6718
G1 X123.126 Y127.104 E.01314
M73 P11 R13
M73 Q11 S13
G1 X123.126 Y105.678 E.6718
G1 X122.707 Y105.678 E.01314
G1 X122.707 Y127.104 E.6718
G1 X122.288 Y127.104 E.01314
G1 X122.288 Y105.678 E.6718
G1 X122.149 Y105.678 E.00437
G1 X122.149 Y110.309 E.14521
G1 X121.869 Y110.309 E.00876
G1 X121.869 Y124.788 E.45398
