; generated by PrusaSlicer 2.5.0+MacOS-x64 on 2022-10-03 at 18:18:10 UTC


;
;
; 

; external perimeters extrusion width = 0.60mm
; perimeters extrusion width = 0.50mm
; infill extrusion width = 0.50mm
; solid infill extrusion width = 0.50mm
; top infill extrusion width = 0.45mm
; first layer extrusion width = 0.42mm

; external perimeters extrusion width = 0.60mm
; perimeters extrusion width = 0.50mm
; infill extrusion width = 0.50mm
; solid infill extrusion width = 0.50mm
; top infill extrusion width = 0.45mm
; first layer extrusion width = 0.42mm

M73 P0 R65
M73 Q0 S65
M201 X1000 Y1000 Z200 E5000 ; sets maximum accelerations, mm/sec^2
M203 X200 Y200 Z12 E120 ; sets maximum feedrates, mm / sec
M204 P1250 R1250 T1250 ; sets acceleration (P, T) and retract acceleration (R), mm/sec^2
M205 X8.00 Y8.00 Z0.40 E4.50 ; sets the jerk limits, mm/sec
M205 S0 T0 ; sets the minimum extruding and travel feed rate, mm/sec
M107
;TYPE:Custom
M862.3 P "MK3S" ; printer model check
M862.1 P0.4 ; nozzle diameter check
M115 U3.11.0 ; tell printer latest fw version
G90 ; use absolute coordinates
M83 ; extruder relative mode
M104 S215 ; set extruder temp
M140 S60 ; set bed temp
M190 S60 ; wait for bed temp
M109 S215 ; wait for extruder temp
G28 W ; home all without mesh bed level
G80 ; mesh bed leveling

G1 Z0.2 F720
G1 Y-3 F1000 ; go outside print area
G92 E0
G1 X60 E9 F1000 ; intro line
G1 X100 E12.5 F1000 ; intro line

G92 E0
M221 S95

; Don't change E values below. Excessive value can damage the printer.

M907 E538 ; set extruder motor current
G21 ; set units to millimeters
G90 ; use absolute coordinates
M83 ; use relative distances for extrusion
M900 K0.05 ; Filament gcode LA 1.5
M900 K30 ; Filament gcode LA 1.0
M107
;LAYER_CHANGE
;Z:0.2
;HEIGHT:0.2
;BEFORE_LAYER_CHANGE
G92 E0.0
;0.2


G1 E-.8 F2100
G1 Z.4 F720
;AFTER_LAYER_CHANGE
;0.2
G1 X117.882 Y89.829 F10800
G1 Z.2 F720
G1 E.8 F2100
M204 S800
;TYPE:Skirt/Brim
;WIDTH:0.42
G1 F1200
G1 X119.243 Y88.201 E.06653
G1 X120.641 Y86.989 E.05803
G1 X122.446 Y85.874 E.06653
G1 X124.116 Y85.184 E.05663
G1 X126.221 Y84.683 E.06786
G1 X128.067 Y84.551 E.05802
G1 X129.744 Y84.671 E.05272
G1 X131.126 Y84.946 E.0442
G1 X132.722 Y85.472 E.05266
G1 X134.304 Y86.257 E.05537
G1 X135.476 Y87.04 E.0442
G1 X136.746 Y88.141 E.05272
G1 X137.688 Y89.19 E.0442
G1 X138.69 Y90.644 E.05537
G1 X167.143 Y148.348 E2.01724
G1 X168.093 Y150.655 E.07823
G1 X168.837 Y152.944 E.07547
G1 X169.41 Y155.281 E.07547
G1 X169.808 Y157.655 E.07546
G1 X170.069 Y161.167 E.1104
G1 X170.023 Y163.661 E.07824
G1 X169.631 Y167.161 E.1104
G1 X168.837 Y170.681 E.11317
G1 X168.062 Y173.053 E.07823
G1 X166.662 Y176.284 E.1104
G1 X164.871 Y179.418 E.11317
G1 X163.435 Y181.458 E.07824
G1 X161.149 Y184.136 E.1104
G1 X159.36 Y185.876 E.07824
G1 X156.547 Y188.137 E.11316
G1 X153.577 Y190.028 E.1104
G1 X150.338 Y191.62 E.11317
M73 P0 R64
G1 X148.005 Y192.505 E.07824
G1 X144.611 Y193.443 E.1104
G1 X142.155 Y193.881 E.07823
G1 X138.646 Y194.175 E.1104
G1 X136.151 Y194.152 E.07824
G1 X132.648 Y193.793 E.1104
G1 X129.12 Y193.032 E.11317
G1 X126.741 Y192.279 E.07824
G1 X123.418 Y190.87 E.11316
G1 X120.347 Y189.147 E.1104
G1 X118.266 Y187.708 E.07935
G1 X115.53 Y185.409 E.11205
G1 X113.099 Y182.862 E.1104
G1 X110.909 Y179.993 E.11317
G1 X109.588 Y177.876 E.07823
G1 X108.01 Y174.728 E.1104
G1 X107.104 Y172.403 E.07823
G1 X106.115 Y168.932 E.11317
G1 X105.529 Y165.46 E.1104
G1 X105.322 Y161.768 E.11593
G1 X105.415 Y159.363 E.07547
G1 X105.684 Y156.985 E.07505
G1 X115.837 Y94.765 E1.97666
G1 X116.137 Y93.477 E.04146
G1 X116.784 Y91.743 E.05803
G1 X117.852 Y89.881 E.0673
M204 S1000
; printing object Body2Well id:0 copy 0
;WIPE_START
G1 F8640
G1 X119.243 Y88.201 E-.50361
G1 X120.082 Y87.474 E-.25639
;WIPE_END
G1 E-.04 F2100
G1 Z.6 F720
G1 X110.489 Y151.184 F10800
G1 Z.2 F720
G1 E.8 F2100
M204 S800
;TYPE:Perimeter
;WIDTH:0.419999
G1 F1200
G1 X110.895 Y150.196 E.03351
G1 X111.346 Y149.208 E.03405
G1 X111.832 Y148.237 E.03405
G1 X112.355 Y147.285 E.03405
G1 X112.912 Y146.353 E.03405
G1 X113.504 Y145.442 E.03405
G1 X114.13 Y144.554 E.03405
G1 X114.787 Y143.69 E.03405
G1 X115.477 Y142.851 E.03405
G1 X116.197 Y142.038 E.03405
G1 X116.947 Y141.252 E.03405
G1 X117.725 Y140.495 E.03405
G1 X118.532 Y139.767 E.03405
G1 X119.364 Y139.07 E.03405
G1 X120.222 Y138.404 E.03405
G1 X121.104 Y137.771 E.03405
G1 X122.01 Y137.171 E.03405
G1 X122.936 Y136.605 E.03405
G1 X123.883 Y136.073 E.03405
G1 X124.85 Y135.578 E.03405
G1 X125.834 Y135.118 E.03405
G1 X126.834 Y134.695 E.03405
G1 X127.85 Y134.31 E.03405
G1 X128.879 Y133.963 E.03405
G1 X129.92 Y133.655 E.03405
G1 X130.972 Y133.385 E.03405
G1 X132.033 Y133.155 E.03405
G1 X133.102 Y132.964 E.03405
G1 X134.178 Y132.813 E.03405
G1 X135.258 Y132.702 E.03405
G1 X136.342 Y132.631 E.03405
G1 X137.429 Y132.601 E.03411
G1 X138.514 Y132.611 E.03399
G1 X139.598 Y132.662 E.03405
G1 X140.681 Y132.752 E.03405
G1 X141.761 Y132.884 E.03411
G1 X142.831 Y133.054 E.034
G1 X143.897 Y133.265 E.03405
G1 X144.954 Y133.515 E.03405
G1 X146 Y133.804 E.03405
G1 X147.036 Y134.132 E.03405
G1 X148.058 Y134.498 E.03405
G1 X149.066 Y134.902 E.03405
G1 X150.059 Y135.343 E.03405
G1 X151.034 Y135.821 E.03405
G1 X151.991 Y136.335 E.03405
G1 X152.928 Y136.883 E.03405
G1 X153.844 Y137.467 E.03405
G1 X154.738 Y138.084 E.03405
G1 X155.608 Y138.733 E.03405
G1 X156.454 Y139.415 E.03405
G1 X157.273 Y140.128 E.03405
G1 X158.066 Y140.87 E.03405
G1 X158.83 Y141.642 E.03405
G1 X159.565 Y142.441 E.03405
G1 X160.271 Y143.269 E.03411
G1 X160.944 Y144.119 E.034
G1 X161.586 Y144.995 E.03405
G1 X162.194 Y145.895 E.03405
G1 X162.769 Y146.816 E.03405
G1 X163.309 Y147.758 E.03405
G1 X163.814 Y148.72 E.03405
G1 X164.282 Y149.7 E.03405
G1 X164.715 Y150.698 E.03411
G1 X165.109 Y151.708 E.03399
G1 X165.465 Y152.734 E.03405
G1 X165.784 Y153.772 E.03405
G1 X166.063 Y154.822 E.03405
G1 X166.303 Y155.881 E.03405
G1 X166.504 Y156.948 E.03405
G1 X166.665 Y158.022 E.03405
G1 X166.786 Y159.103 E.03411
G1 X166.866 Y160.184 E.034
G1 X166.907 Y161.27 E.03405
G1 X166.907 Y162.356 E.03405
G1 X166.866 Y163.441 E.03405
G1 X166.786 Y164.524 E.03405
G1 X166.665 Y165.603 E.03405
G1 X166.504 Y166.677 E.03405
G1 X166.303 Y167.745 E.03405
G1 X166.063 Y168.804 E.03405
G1 X165.784 Y169.853 E.03405
G1 X165.465 Y170.891 E.03405
G1 X165.109 Y171.917 E.03405
G1 X164.713 Y172.931 E.03411
G1 X164.282 Y173.926 E.03399
G1 X163.814 Y174.905 E.03405
G1 X163.309 Y175.867 E.03405
G1 X162.769 Y176.809 E.03405
G1 X162.194 Y177.731 E.03405
G1 X161.586 Y178.63 E.03405
G1 X160.944 Y179.506 E.03405
G1 X160.27 Y180.358 E.03405
G1 X159.565 Y181.184 E.03405
G1 X158.83 Y181.984 E.03405
G1 X158.066 Y182.755 E.03405
G1 X157.273 Y183.498 E.03405
G1 X156.454 Y184.21 E.03405
G1 X155.608 Y184.892 E.03405
G1 X154.738 Y185.542 E.03405
G1 X153.844 Y186.159 E.03405
G1 X152.928 Y186.742 E.03405
G1 X151.991 Y187.291 E.03405
G1 X151.034 Y187.804 E.03405
G1 X150.059 Y188.282 E.03405
G1 X149.066 Y188.723 E.03405
G1 X148.058 Y189.127 E.03405
G1 X147.036 Y189.493 E.03405
G1 X146 Y189.821 E.03405
G1 X144.954 Y190.11 E.03405
G1 X143.897 Y190.36 E.03405
G1 X142.831 Y190.571 E.03405
G1 X141.759 Y190.742 E.03405
G1 X140.681 Y190.873 E.03405
G1 X139.598 Y190.964 E.03405
G1 X138.514 Y191.014 E.03405
G1 X137.428 Y191.024 E.03405
G1 X136.342 Y190.994 E.03405
G1 X135.258 Y190.923 E.03405
G1 X134.178 Y190.812 E.03405
G1 X133.102 Y190.661 E.03405
G1 X132.033 Y190.471 E.03405
G1 X130.972 Y190.24 E.03405
G1 X129.92 Y189.971 E.03405
G1 X128.879 Y189.662 E.03405
G1 X127.848 Y189.314 E.03411
G1 X126.834 Y188.93 E.034
G1 X125.834 Y188.507 E.03405
G1 X124.85 Y188.048 E.03405
G1 X123.883 Y187.552 E.03405
G1 X122.936 Y187.021 E.03405
G1 X122.009 Y186.455 E.03405
G1 X121.104 Y185.854 E.03405
G1 X120.222 Y185.221 E.03405
G1 X119.364 Y184.555 E.03405
G1 X118.532 Y183.858 E.03405
G1 X117.725 Y183.13 E.03405
G1 X116.947 Y182.373 E.03405
G1 X116.197 Y181.587 E.03405
G1 X115.477 Y180.774 E.03405
G1 X114.787 Y179.935 E.03405
G1 X114.129 Y179.071 E.03405
G1 X113.503 Y178.182 E.03411
G1 X112.912 Y177.273 E.034
G1 X112.355 Y176.341 E.03405
G1 X111.832 Y175.389 E.03405
G1 X111.346 Y174.418 E.03405
G1 X110.895 Y173.429 E.03405
G1 X110.482 Y172.425 E.03405
G1 X110.107 Y171.406 E.03405
G1 X109.769 Y170.374 E.03405
G1 X109.47 Y169.33 E.03405
G1 X109.21 Y168.275 E.03405
G1 X108.99 Y167.212 E.03405
G1 X108.809 Y166.141 E.03405
G1 X108.668 Y165.062 E.03411
G1 X108.567 Y163.983 E.034
G1 X108.507 Y162.898 E.03405
G1 X108.486 Y161.813 E.03405
G1 X108.507 Y160.727 E.03405
G1 X108.567 Y159.642 E.03405
G1 X108.668 Y158.561 E.03405
G1 X108.809 Y157.484 E.03405
G1 X108.99 Y156.413 E.03405
G1 X109.21 Y155.35 E.03405
G1 X109.47 Y154.296 E.03405
G1 X109.769 Y153.251 E.03405
G1 X110.107 Y152.219 E.03405
G1 X110.467 Y151.24 E.03272
M204 S1000
G1 X110.14 Y151.041 F10800
M204 S800
;TYPE:External perimeter
G1 F1200
G1 X110.549 Y150.046 E.03373
G1 X111.006 Y149.045 E.03449
G1 X111.499 Y148.061 E.03449
G1 X112.028 Y147.097 E.03449
G1 X112.592 Y146.153 E.03449
G1 X113.192 Y145.231 E.03449
G1 X113.825 Y144.331 E.03449
G1 X114.491 Y143.456 E.03449
G1 X115.19 Y142.606 E.03449
G1 X115.919 Y141.783 E.03449
G1 X116.679 Y140.987 E.03449
G1 X117.467 Y140.22 E.03449
G1 X118.284 Y139.483 E.03449
G1 X119.127 Y138.777 E.03449
G1 X119.997 Y138.102 E.03449
G1 X120.89 Y137.461 E.03449
G1 X121.807 Y136.853 E.03449
G1 X122.746 Y136.279 E.03449
G1 X123.705 Y135.741 E.03449
G1 X124.684 Y135.239 E.03449
G1 X125.681 Y134.773 E.03449
G1 X126.694 Y134.345 E.03449
G1 X127.723 Y133.955 E.03449
G1 X128.765 Y133.604 E.03449
G1 X129.82 Y133.291 E.03449
G1 X130.885 Y133.018 E.03449
M73 Q0 S64
G1 X131.96 Y132.785 E.03449
G1 X133.043 Y132.591 E.03449
G1 X134.132 Y132.438 E.03449
G1 X135.227 Y132.326 E.03449
G1 X136.325 Y132.255 E.03449
G1 X137.426 Y132.224 E.03455
G1 X138.524 Y132.234 E.03443
G1 X139.623 Y132.285 E.03449
G1 X140.719 Y132.377 E.03449
G1 X141.813 Y132.51 E.03455
G1 X142.898 Y132.683 E.03443
G1 X143.977 Y132.896 E.03449
G1 X145.047 Y133.15 E.03449
G1 X146.107 Y133.443 E.03449
G1 X147.156 Y133.775 E.03449
G1 X148.192 Y134.146 E.03449
G1 X149.213 Y134.555 E.03449
G1 X150.218 Y135.002 E.03449
G1 X151.206 Y135.485 E.03449
G1 X152.175 Y136.006 E.03449
G1 X153.125 Y136.562 E.03449
G1 X154.053 Y137.152 E.03449
G1 X154.958 Y137.777 E.03449
G1 X155.839 Y138.435 E.03449
G1 X156.696 Y139.126 E.03449
G1 X157.526 Y139.848 E.03449
G1 X158.329 Y140.6 E.03449
G1 X159.103 Y141.381 E.03449
G1 X159.847 Y142.191 E.03449
G1 X160.563 Y143.029 E.03455
G1 X161.244 Y143.89 E.03443
G1 X161.894 Y144.778 E.03449
G1 X162.51 Y145.689 E.03449
G1 X163.093 Y146.622 E.03449
G1 X163.64 Y147.577 E.03449
G1 X164.151 Y148.551 E.03449
G1 X164.625 Y149.543 E.03449
G1 X165.064 Y150.554 E.03455
G1 X165.463 Y151.577 E.03443
G1 X165.824 Y152.617 E.03449
G1 X166.146 Y153.668 E.03449
G1 X166.429 Y154.731 E.03449
G1 X166.673 Y155.804 E.03449
G1 X166.876 Y156.885 E.03449
G1 X167.039 Y157.973 E.03449
G1 X167.161 Y159.068 E.03455
G1 X167.243 Y160.163 E.03444
G1 X167.284 Y161.263 E.03449
G1 X167.284 Y162.363 E.03449
G1 X167.243 Y163.462 E.03449
G1 X167.161 Y164.559 E.03449
G1 X167.039 Y165.652 E.03449
G1 X166.876 Y166.74 E.03449
G1 X166.673 Y167.821 E.03449
G1 X166.429 Y168.894 E.03449
G1 X166.146 Y169.957 E.03449
G1 X165.824 Y171.009 E.03449
G1 X165.463 Y172.048 E.03449
G1 X165.062 Y173.074 E.03455
G1 X164.625 Y174.082 E.03443
G1 X164.151 Y175.074 E.03449
G1 X163.64 Y176.048 E.03449
G1 X163.092 Y177.003 E.03449
G1 X162.51 Y177.936 E.03449
G1 X161.894 Y178.847 E.03449
G1 X161.244 Y179.735 E.03449
G1 X160.562 Y180.598 E.03449
G1 X159.848 Y181.434 E.03449
G1 X159.103 Y182.244 E.03449
G1 X158.329 Y183.026 E.03449
G1 X157.526 Y183.778 E.03449
G1 X156.696 Y184.499 E.03449
G1 X155.839 Y185.19 E.03449
G1 X154.958 Y185.848 E.03449
G1 X154.053 Y186.473 E.03449
G1 X153.125 Y187.064 E.03449
G1 X152.175 Y187.62 E.03449
G1 X151.206 Y188.14 E.03449
G1 X150.218 Y188.624 E.03449
G1 X149.213 Y189.071 E.03449
G1 X148.192 Y189.48 E.03449
G1 X147.156 Y189.851 E.03449
G1 X146.108 Y190.183 E.03449
G1 X145.047 Y190.476 E.03449
G1 X143.977 Y190.729 E.03449
G1 X142.898 Y190.942 E.03449
G1 X141.811 Y191.115 E.03449
G1 X140.719 Y191.248 E.03449
G1 X139.623 Y191.34 E.03449
G1 X138.524 Y191.391 E.03449
G1 X137.424 Y191.401 E.03449
G1 X136.325 Y191.371 E.03449
G1 X135.227 Y191.299 E.03449
G1 X134.132 Y191.187 E.03449
G1 X133.043 Y191.034 E.03449
G1 X131.96 Y190.841 E.03449
G1 X130.885 Y190.607 E.03449
G1 X129.82 Y190.334 E.03449
G1 X128.765 Y190.022 E.03449
G1 X127.721 Y189.669 E.03455
G1 X126.694 Y189.28 E.03444
G1 X125.681 Y188.852 E.03449
G1 X124.684 Y188.386 E.03449
G1 X123.705 Y187.884 E.03449
G1 X122.746 Y187.346 E.03449
G1 X121.807 Y186.773 E.03449
G1 X120.89 Y186.165 E.03449
G1 X119.997 Y185.523 E.03449
G1 X119.127 Y184.849 E.03449
G1 X118.284 Y184.142 E.03449
G1 X117.467 Y183.405 E.03449
G1 X116.679 Y182.638 E.03449
G1 X115.919 Y181.843 E.03449
G1 X115.19 Y181.019 E.03449
G1 X114.491 Y180.169 E.03449
G1 X113.825 Y179.294 E.03449
M73 Q1 S64
G1 X113.191 Y178.393 E.03455
G1 X112.592 Y177.472 E.03444
G1 X112.028 Y176.528 E.03449
G1 X111.499 Y175.564 E.03449
G1 X111.006 Y174.58 E.03449
G1 X110.549 Y173.579 E.03449
M73 P1 R64
G1 X110.131 Y172.562 E.03449
G1 X109.75 Y171.53 E.03449
G1 X109.408 Y170.484 E.03449
G1 X109.106 Y169.427 E.03449
G1 X108.842 Y168.359 E.03449
G1 X108.619 Y167.282 E.03449
G1 X108.436 Y166.197 E.03449
G1 X108.293 Y165.104 E.03455
G1 X108.191 Y164.011 E.03443
G1 X108.13 Y162.912 E.03449
G1 X108.109 Y161.813 E.03449
G1 X108.13 Y160.713 E.03449
G1 X108.191 Y159.614 E.03449
G1 X108.293 Y158.519 E.03449
G1 X108.436 Y157.428 E.03449
G1 X108.619 Y156.344 E.03449
G1 X108.842 Y155.267 E.03449
G1 X109.106 Y154.198 E.03449
G1 X109.408 Y153.141 E.03449
G1 X109.75 Y152.095 E.03449
G1 X110.118 Y151.097 E.03337
M204 S1000
G1 X110.535 Y150.98 F10800
;WIPE_START
G1 F8640
G1 X110.549 Y150.046 E-.26221
G1 X111.006 Y149.045 E-.25401
G1 X111.479 Y148.101 E-.24377
;WIPE_END
G1 E-.04 F2100
G1 Z.6 F720
G1 X126.286 Y149.23 F10800
G1 Z.2 F720
G1 E.8 F2100
M204 S800
;TYPE:Perimeter
G1 F1200
G1 X125.599 Y149.313 E.02171
G1 X125.231 Y149.29 E.01156
G1 X124.699 Y149.204 E.01691
G1 X124.221 Y149.012 E.01614
G1 X123.8 Y148.806 E.01468
G1 X123.256 Y148.372 E.02183
G1 X122.739 Y147.71 E.02633
G1 X122.507 Y147.185 E.01801
G1 X122.37 Y146.799 E.01283
G1 X122.281 Y146.109 E.02183
G1 X122.37 Y145.274 E.02633
G1 X122.668 Y144.488 E.02633
G1 X123.043 Y143.955 E.02045
G1 X123.256 Y143.701 E.0104
G1 X123.8 Y143.267 E.02182
G1 X124.561 Y142.91 E.02634
G1 X125.175 Y142.79 E.01962
G1 X125.502 Y142.756 E.01032
G1 X125.951 Y142.776 E.01409
G1 X126.63 Y142.93 E.02183
G1 X127.238 Y143.227 E.02122
G1 X127.584 Y143.46 E.01308
G1 X128.017 Y143.853 E.01832
G1 X128.49 Y144.547 E.02633
G1 X128.773 Y145.338 E.02633
G1 X128.845 Y146.174 E.02633
G1 X128.703 Y147.002 E.02633
G1 X128.355 Y147.767 E.02634
G1 X127.825 Y148.418 E.02633
G1 X127.147 Y148.913 E.02633
G1 X126.346 Y149.223 E.02692
M204 S1000
G1 X126.235 Y148.867 F10800
M204 S800
;TYPE:External perimeter
G1 F1200
G1 X125.563 Y148.938 E.02119
G1 X124.76 Y148.832 E.0254
G1 X124.077 Y148.536 E.02333
G1 X123.533 Y148.111 E.02165
G1 X123.041 Y147.485 E.02496
G1 X122.756 Y146.797 E.02333
G1 X122.655 Y146.06 E.02333
G1 X122.744 Y145.322 E.02333
G1 X123.018 Y144.63 E.02333
G1 X123.491 Y143.995 E.02483
G1 X124.037 Y143.56 E.0219
G1 X124.713 Y143.255 E.02326
G1 X125.237 Y143.161 E.01667
G1 X125.829 Y143.138 E.01857
G1 X126.509 Y143.29 E.02185
G1 X127.064 Y143.561 E.01938
G1 X127.331 Y143.739 E.01006
G1 X127.763 Y144.132 E.01832
G1 X128.174 Y144.752 E.02333
G1 X128.415 Y145.457 E.02333
G1 X128.469 Y146.199 E.02333
G1 X128.332 Y146.93 E.02332
G1 X128.015 Y147.603 E.02333
G1 X127.538 Y148.174 E.02333
G1 X126.931 Y148.604 E.02333
G1 X126.291 Y148.846 E.02145
M204 S1000
G1 X126.12 Y149.25 F10800
;WIPE_START
G1 F8640
G1 X125.563 Y148.938 E-.16949
G1 X124.76 Y148.832 E-.18709
G1 X124.077 Y148.536 E-.17179
G1 X123.533 Y148.111 E-.15945
G1 X123.34 Y147.865 E-.07218
;WIPE_END
G1 E-.04 F2100
G1 Z.6 F720
G1 X156.493 Y162.333 F10800
G1 Z.2 F720
G1 E.8 F2100
M204 S800
